public/icons/user-profile.svg

<svg width="108" height="100" viewBox="0 0 108 100" fill="none" xmlns="http://www.w3.org/2000/svg">
<g clip-path="url(#clip0_619_124)">
<rect width="108" height="100" fill="#EE9900"/>
<g clip-path="url(#clip1_619_124)">
<path d="M54 10C31.91 10 14 27.91 14 50C14 72.09 31.91 90 54 90C76.09 90 94 72.09 94 50C94 27.91 76.09 10 54 10ZM79.8433 71.0167C78.9733 69.0633 77.2133 67.7133 73.6067 66.88C65.9633 65.1167 58.8467 63.57 62.2967 57.0633C72.78 37.2567 65.0733 26.6667 54 26.6667C42.7067 26.6667 35.1867 37.6633 45.7033 57.0633C49.2567 63.61 41.8767 65.1533 34.3933 66.88C30.78 67.7133 29.0333 69.0733 28.17 71.0333C23.4867 65.29 20.6667 57.97 20.6667 50C20.6667 31.62 35.62 16.6667 54 16.6667C72.38 16.6667 87.3333 31.62 87.3333 50C87.3333 57.9633 84.5167 65.2767 79.8433 71.0167Z" fill="#EFEEF4"/>
<path d="M81.289 51.287C80.677 50.4923 79.7498 50 78.7402 50C77.813 50 76.9506 50.4122 76.3386 51.1052C74.669 50.8946 73.2002 52.2887 73.2002 54.0743C73.2002 54.8834 73.5042 55.6178 73.9954 56.1569C74.029 59.2763 75.3962 61.8512 75.5954 64.571C75.7082 66.0911 75.3698 68.3384 75.121 69.7127C74.8938 70.9718 76.853 71.6 78.8138 71.6C80.7778 71.6 82.7442 70.97 82.5178 69.7136C82.269 68.3384 81.9314 66.092 82.0418 64.5719C82.2426 61.8521 83.6106 59.2754 83.6426 56.1542C84.1114 55.6331 84.4002 54.9284 84.4002 54.1517C84.4002 52.3958 82.933 51.0305 81.289 51.287ZM77.853 69.9386C77.6362 69.926 77.4186 69.9071 77.2138 69.8783C76.933 69.8387 76.7434 69.7892 76.6194 69.7469C76.8994 68.144 77.1842 66.011 77.069 64.4495C76.9674 63.0707 76.6202 61.799 76.285 60.5687C76.0266 59.6165 75.6482 58.2512 75.5218 57.02C75.9914 57.1073 76.4562 57.0677 76.897 56.9102C77.0962 59.2772 78.1426 61.3409 78.3018 63.8933C78.4386 66.0956 78.1986 68.504 77.853 69.9386ZM81.0738 55.5962C80.2274 56.462 81.2034 57.8957 81.2778 58.6733C81.3554 59.4797 80.8858 60.0881 80.1458 60.0881C79.4258 60.0881 79.0018 59.4392 79.0594 58.6733C79.113 57.9479 80.0674 56.5619 79.353 55.6043C78.6426 55.8392 77.8426 55.6565 77.2826 55.0607C76.9962 55.481 76.5314 55.7537 76.009 55.7537C75.1378 55.7537 74.4322 55.0022 74.4322 54.0752C74.4322 53.1482 75.1378 52.3967 76.009 52.3967C76.3138 52.3967 76.5994 52.4894 76.841 52.6505C77.1554 51.8639 77.8874 51.3122 78.7402 51.3122C79.6922 51.3122 80.4938 52.0007 80.7306 52.9358C80.9882 52.7072 81.3194 52.5686 81.6818 52.5686C82.5026 52.5686 83.1674 53.2778 83.1674 54.1517C83.1682 55.3073 82.0466 56.0624 81.0738 55.5962Z" fill="#EFEEF4"/>
</g>
</g>
<defs>
<clipPath id="clip0_619_124">
<rect width="108" height="100" fill="white"/>
</clipPath>
<clipPath id="clip1_619_124">
<rect width="80" height="80" fill="white" transform="translate(14 10)"/>
</clipPath>
</defs>
</svg>

<?xml version="1.0" encoding="utf-8"?>
<!-- Generator: Adobe Illustrator 27.3.0, SVG Export Plug-In . SVG Version: 6.00 Build 0)  -->
<svg version="1.1" id="Capa_1" xmlns="http://www.w3.org/2000/svg" xmlns:xlink="http://www.w3.org/1999/xlink" x="0px" y="0px"
	 viewBox="0 0 108 100" style="enable-background:new 0 0 108 100;" xml:space="preserve">
<style type="text/css">
	.st0{clip-path:url(#SVGID_00000163067311183968737380000001141354483525086382_);}
	.st1{clip-path:url(#SVGID_00000070825319657462459940000007732405180889555377_);}
	.st2{fill:#EFEEF4;}
</style>
<g>
	<defs>
		<rect id="SVGID_1_" y="0" width="108" height="100"/>
	</defs>
	<clipPath id="SVGID_00000127043290447032017110000001333414292024688547_">
		<use xlink:href="#SVGID_1_"  style="overflow:visible;"/>
	</clipPath>
	<g style="clip-path:url(#SVGID_00000127043290447032017110000001333414292024688547_);">
		<g>
			<defs>
				<rect id="SVGID_00000070810903408640046370000012798576223199382935_" x="14" y="10" width="80" height="80"/>
			</defs>
			<clipPath id="SVGID_00000048500676493617199240000016893755653214064302_">
				<use xlink:href="#SVGID_00000070810903408640046370000012798576223199382935_"  style="overflow:visible;"/>
			</clipPath>
			<g style="clip-path:url(#SVGID_00000048500676493617199240000016893755653214064302_);">
				<path class="st2" d="M54,10c-22.1,0-40,17.9-40,40s17.9,40,40,40s40-17.9,40-40S76.1,10,54,10z M79.8,71c-0.9-2-2.6-3.3-6.2-4.1
					c-7.6-1.8-14.8-3.3-11.3-9.8c10.5-19.8,2.8-30.4-8.3-30.4c-11.3,0-18.8,11-8.3,30.4c3.6,6.5-3.8,8.1-11.3,9.8
					c-3.6,0.8-5.4,2.2-6.2,4.2c-4.7-5.7-7.5-13.1-7.5-21c0-18.4,15-33.3,33.3-33.3s33.3,15,33.3,33.3C87.3,58,84.5,65.3,79.8,71z"/>
				<path class="st2" d="M81.3,51.3c-0.6-0.8-1.5-1.3-2.5-1.3c-0.9,0-1.8,0.4-2.4,1.1c-1.7-0.2-3.1,1.2-3.1,3c0,0.8,0.3,1.5,0.8,2.1
					c0,3.1,1.4,5.7,1.6,8.4c0.1,1.5-0.2,3.8-0.5,5.1c-0.2,1.3,1.7,1.9,3.7,1.9c2,0,3.9-0.6,3.7-1.9c-0.2-1.4-0.6-3.6-0.5-5.1
					c0.2-2.7,1.6-5.3,1.6-8.4c0.5-0.5,0.8-1.2,0.8-2C84.4,52.4,82.9,51,81.3,51.3z M77.9,69.9c-0.2,0-0.4,0-0.6-0.1
					c-0.3,0-0.5-0.1-0.6-0.1c0.3-1.6,0.6-3.7,0.4-5.3c-0.1-1.4-0.4-2.7-0.8-3.9c-0.3-1-0.6-2.3-0.8-3.5c0.5,0.1,0.9,0,1.4-0.1
					c0.2,2.4,1.2,4.4,1.4,7C78.4,66.1,78.2,68.5,77.9,69.9z M81.1,55.6c-0.8,0.9,0.1,2.3,0.2,3.1c0.1,0.8-0.4,1.4-1.1,1.4
					c-0.7,0-1.1-0.6-1.1-1.4c0.1-0.7,1-2.1,0.3-3.1c-0.7,0.2-1.5,0.1-2.1-0.5c-0.3,0.4-0.8,0.7-1.3,0.7c-0.9,0-1.6-0.8-1.6-1.7
					c0-0.9,0.7-1.7,1.6-1.7c0.3,0,0.6,0.1,0.8,0.3c0.3-0.8,1-1.3,1.9-1.3c1,0,1.8,0.7,2,1.6c0.3-0.2,0.6-0.4,1-0.4
					c0.8,0,1.5,0.7,1.5,1.6C83.2,55.3,82,56.1,81.1,55.6z"/>
			</g>
		</g>
	</g>
</g>
</svg>
